!!!OTL: Der Spielmannssohn.
!!!OTL-incipit: Als ich ein kleines Buewele war,
!!!ARE: Europa, Mitteleuropa, Deutschland / France, Lothringen
!!!YOR: 3, S. 178
!!    1928 gedruckt in Heidelberg
!!!SCT: Q0062H
!!!TXL: @@DE
!!!YEM: Copyright 1995, estate of Helmut Schaffrath.
**kern	**text
*ICvox	*
*M6/8	*
*k[b-e-]	*
*B-:	*
!LO:TX:a:t=Frisch und flott.	!
!LO:TX:a:t=R+J	!
{8f	Als
=1	=1
8.b-	ich
16b-	ein
8f	klei-
4b-	.
8f	-nes
=2	=2
8.b-	Büwele
16b-	.
8b-	.
4b-}	war,
{8f	und_da
=3	=3
8.cc	lehrt
16cc	mich
8cc	mein
8cc	Vater
8dd	.
8cc	das
=4	=4
4.b-	Gei-
4a}	-gen,
{8g	und
=5	=5
4g	als_ich
8g	eine
8b-	klei-
8a	-ne
8g	Weil'
=6	=6
4f	grö-
8f	-ßer
4d}	war,
{8g	da
=7	=7
16g	lehrt'
16g	.
8g	ers
8g	mich
8b-	noch
8a	.
8g	viel
=8	=8
4.g	beſ-
4f}	fer.
==	==
!!!AGN: Ballade, Verfuehrung, Standesunterschied, Strafe, Gnade
!! Kleine Melodievarianten aus anderer Quelle im gleichen System
!!    abgedruckt.
!!!ONB: ESAC (Essen Associative Code) Database: BALLADE
!!!AMT: compound duple
!!!AIN: vox
!!!EED: Helmut Schaffrath
!!!EEV: 1.0
!!!source: Deutsche Volkslieder mit ihren Melodien. Herausgegeben vom Deutschen Volksliedarchiv. Dritter Band Balladen. Berlin 1954.
!!!page: 178
!!!ENC: Anna Maria Matuszewska
!!!EEV: 2025/02/21
*-	*-
